groups/nitrogen/hydrazine.svg

<svg height="256" viewBox="0 0 256 256" width="256" xmlns="http://www.w3.org/2000/svg"><path d="m0 0h256v256h-256z" fill="#fff"/><path d="m215.5 154.2-57.1-33.1" fill="none" stroke="#000" stroke-width="2"/><path d="m128.9 121.1-42.5 24.5" fill="none" stroke="#000" stroke-width="2"/><path d="m236.35 118.271c-2.697-1.561-4.777 2.035-2.08 3.595 2.696 1.56.616 5.156-2.081 3.595-2.696-1.56-4.777 2.036-2.08 3.596s.617 5.156-2.08 3.595c-2.697-1.56-4.777 2.036-2.08 3.596 2.696 1.56.616 5.156-2.08 3.595-2.697-1.56-4.777 2.036-2.081 3.596 2.697 1.56.617 5.155-2.08 3.595-2.696-1.56-4.777 2.036-2.08 3.596s.617 5.155-2.08 3.595-4.777 2.035-2.08 3.596c2.696 1.56.616 5.155-2.081 3.595-2.696-1.56-4.776 2.035-2.08 3.596 2.697 1.56.617 5.155-2.08 3.595s-4.777 2.035-2.08 3.596c2.697 1.56.616 5.155-2.08 3.595-2.697-1.56-4.777 2.035-2.08 3.595 2.696 1.561.616 5.156-2.081 3.596-2.696-1.56-4.776 2.035-2.08 3.595 2.697 1.561.617 5.156-2.08 3.596" fill="none" stroke="#7f7f7f" stroke-width="2"/><g font-family="sans-serif"><text font-size="40" x="131.6" y="132.6">N</text><text font-size="40" x="131.6" y="97.4">H</text><text font-size="40" x="19.3" y="174.1">H</text><text font-size="26" x="46.9" y="190.1">2</text><text font-size="40" x="59.7" y="174.1">N</text></g></svg>

<?xml version='1.0' encoding='iso-8859-1'?>
<svg version='1.1' baseProfile='full'
              xmlns='http://www.w3.org/2000/svg'
                      xmlns:rdkit='http://www.rdkit.org/xml'
                      xmlns:xlink='http://www.w3.org/1999/xlink'
                  xml:space='preserve'
width='256px' height='256px' viewBox='0 0 256 256'>
<!-- END OF HEADER -->
<rect style='opacity:1.0;fill:#FFFFFF;stroke:none' width='256.0' height='256.0' x='0.0' y='0.0'> </rect>
<path class='bond-0 atom-0 atom-1' d='M 215.5,154.2 L 158.4,121.1' style='fill:none;fill-rule:evenodd;stroke:#000000;stroke-width:2.0px;stroke-linecap:butt;stroke-linejoin:miter;stroke-opacity:1' />
<path class='bond-1 atom-1 atom-2' d='M 128.9,121.1 L 86.4,145.6' style='fill:none;fill-rule:evenodd;stroke:#000000;stroke-width:2.0px;stroke-linecap:butt;stroke-linejoin:miter;stroke-opacity:1' />
<path class='atom-1' d='M236.35,118.271 C233.653,116.71 231.573,120.306 234.27,121.866 C236.966,123.426 234.886,127.022 232.189,125.461 C229.493,123.901 227.412,127.497 230.109,129.057 C232.806,130.617 230.726,134.213 228.029,132.652 C225.332,131.092 223.252,134.688 225.949,136.248 C228.645,137.808 226.565,141.404 223.869,139.843 C221.172,138.283 219.092,141.879 221.788,143.439 C224.485,144.999 222.405,148.594 219.708,147.034 C217.012,145.474 214.931,149.07 217.628,150.63 C220.325,152.19 218.245,155.785 215.548,154.225 C212.851,152.665 210.771,156.26 213.468,157.821 C216.164,159.381 214.084,162.976 211.387,161.416 C208.691,159.856 206.611,163.451 209.307,165.012 C212.004,166.572 209.924,170.167 207.227,168.607 C204.53,167.047 202.45,170.642 205.147,172.203 C207.844,173.763 205.763,177.358 203.067,175.798 C200.37,174.238 198.29,177.833 200.987,179.393 C203.683,180.954 201.603,184.549 198.906,182.989 C196.21,181.429 194.13,185.024 196.826,186.584 C199.523,188.145 197.443,191.74 194.746,190.18' style='fill:none;stroke:#7F7F7F;stroke-width:2.0px;stroke-linecap:butt;stroke-linejoin:miter;stroke-opacity:1' />
<text x='131.6' y='132.6' class='atom-1' style='font-size:40px;font-style:normal;font-weight:normal;fill-opacity:1;stroke:none;font-family:sans-serif;text-anchor:start;fill:#000000' >N</text>
<text x='131.6' y='97.4' class='atom-1' style='font-size:40px;font-style:normal;font-weight:normal;fill-opacity:1;stroke:none;font-family:sans-serif;text-anchor:start;fill:#000000' >H</text>
<text x='19.3' y='174.1' class='atom-2' style='font-size:40px;font-style:normal;font-weight:normal;fill-opacity:1;stroke:none;font-family:sans-serif;text-anchor:start;fill:#000000' >H</text>
<text x='46.9' y='190.1' class='atom-2' style='font-size:26px;font-style:normal;font-weight:normal;fill-opacity:1;stroke:none;font-family:sans-serif;text-anchor:start;fill:#000000' >2</text>
<text x='59.7' y='174.1' class='atom-2' style='font-size:40px;font-style:normal;font-weight:normal;fill-opacity:1;stroke:none;font-family:sans-serif;text-anchor:start;fill:#000000' >N</text>
</svg>
